Newaita-dark/.places-mint/24/folder-drag-accept.svg

<?xml version="1.0" encoding="UTF-8"?>
<svg xmlns="http://www.w3.org/2000/svg" xmlns:xlink="http://www.w3.org/1999/xlink" width="24px" height="24px" viewBox="0 0 24 24" version="1.1">
<defs>
<linearGradient id="linear0" gradientUnits="userSpaceOnUse" x1="254" y1="233.5" x2="254" y2="254.666672" gradientTransform="matrix(0.0468795,0,0,0.0468795,-0.0000028613,10.079089)">
<stop offset="0" style="stop-color:rgb(0%,0%,0%);stop-opacity:0.27451;"/>
<stop offset="1" style="stop-color:rgb(0%,0%,0%);stop-opacity:0;"/>
</linearGradient>
<radialGradient id="radial0" gradientUnits="userSpaceOnUse" cx="450.908936" cy="189.579361" fx="450.908936" fy="189.579361" r="21.166656" gradientTransform="matrix(0.000000130628,-0.0585994,-0.105479,-0.0000000761539,40.58641,47.696499)">
<stop offset="0" style="stop-color:rgb(0%,0%,0%);stop-opacity:0.313726;"/>
<stop offset="0.222222" style="stop-color:rgb(0%,0%,0%);stop-opacity:0.27451;"/>
<stop offset="1" style="stop-color:rgb(0%,0%,0%);stop-opacity:0;"/>
</radialGradient>
<radialGradient id="radial1" gradientUnits="userSpaceOnUse" cx="450.908936" cy="189.579361" fx="450.908936" fy="189.579361" r="21.166656" gradientTransform="matrix(-0.000000130628,0.0585994,0.105479,0.0000000761539,-16.771633,-5.645609)">
<stop offset="0" style="stop-color:rgb(0%,0%,0%);stop-opacity:0.313726;"/>
<stop offset="0.222222" style="stop-color:rgb(0%,0%,0%);stop-opacity:0.27451;"/>
<stop offset="1" style="stop-color:rgb(0%,0%,0%);stop-opacity:0;"/>
</radialGradient>
<radialGradient id="radial2" gradientUnits="userSpaceOnUse" cx="450.908936" cy="189.579361" fx="450.908936" fy="189.579361" r="21.166656" gradientTransform="matrix(-0.000000130628,-0.0585994,0.105479,-0.0000000761539,-16.771633,47.696499)">
<stop offset="0" style="stop-color:rgb(0%,0%,0%);stop-opacity:0.313726;"/>
<stop offset="0.222222" style="stop-color:rgb(0%,0%,0%);stop-opacity:0.27451;"/>
<stop offset="1" style="stop-color:rgb(0%,0%,0%);stop-opacity:0;"/>
</radialGradient>
<radialGradient id="radial3" gradientUnits="userSpaceOnUse" cx="450.908936" cy="189.579361" fx="450.908936" fy="189.579361" r="21.166656" gradientTransform="matrix(0.000000130628,0.0585994,-0.105479,0.0000000761539,40.586408,-5.64561)">
<stop offset="0" style="stop-color:rgb(0%,0%,0%);stop-opacity:0.313726;"/>
<stop offset="0.222222" style="stop-color:rgb(0%,0%,0%);stop-opacity:0.27451;"/>
<stop offset="1" style="stop-color:rgb(0%,0%,0%);stop-opacity:0;"/>
</radialGradient>
<linearGradient id="linear1" gradientUnits="userSpaceOnUse" x1="960" y1="255.118118" x2="960" y2="1215.118164" gradientTransform="matrix(0.0124035,0,0,0.0124035,0,0.00000000000000141)">
<stop offset="0" style="stop-color:rgb(34.509805%,34.509805%,34.509805%);stop-opacity:0;"/>
<stop offset="1" style="stop-color:rgb(98.039216%,98.039216%,98.039216%);stop-opacity:0.196078;"/>
</linearGradient>
<linearGradient id="linear2" gradientUnits="userSpaceOnUse" x1="960" y1="1695.118164" x2="960" y2="855.118103" gradientTransform="matrix(0.0124035,0,0,0.0124035,0,0.00000000000000141)">
<stop offset="0" style="stop-color:rgb(34.509805%,34.509805%,34.509805%);stop-opacity:0;"/>
<stop offset="1" style="stop-color:rgb(98.039216%,98.039216%,98.039216%);stop-opacity:0.196078;"/>
</linearGradient>
</defs>
<g id="surface1">
<path style=" stroke:none;fill-rule:nonzero;fill:url(#linear0);" d="M 2.976562 21.027344 L 20.839844 21.027344 L 20.839844 22.019531 L 2.976562 22.019531 Z M 2.976562 21.027344 "/>
<path style=" stroke:none;fill-rule:nonzero;fill:url(#radial0);" d="M 20.839844 21.027344 L 22.824219 21.027344 L 22.824219 20.03125 L 20.839844 20.03125 Z M 20.839844 21.027344 "/>
<path style=" stroke:none;fill-rule:nonzero;fill:url(#radial1);" d="M 2.976562 21.027344 L 0.992188 21.027344 L 0.992188 22.019531 L 2.976562 22.019531 Z M 2.976562 21.027344 "/>
<path style=" stroke:none;fill-rule:nonzero;fill:url(#radial2);" d="M 2.976562 21.027344 L 0.992188 21.027344 L 0.992188 20.03125 L 2.976562 20.03125 Z M 2.976562 21.027344 "/>
<path style=" stroke:none;fill-rule:nonzero;fill:url(#radial3);" d="M 20.839844 21.027344 L 22.824219 21.027344 L 22.824219 22.019531 L 20.839844 22.019531 Z M 20.839844 21.027344 "/>
<path style=" stroke:none;fill-rule:nonzero;fill:rgb(61.176473%,80.000001%,39.607844%);fill-opacity:1;" d="M 5.457031 3.164062 C 4.90625 3.164062 4.464844 3.605469 4.464844 4.15625 L 4.464844 5.148438 L 1.984375 5.148438 C 1.433594 5.148438 0.992188 5.589844 0.992188 6.140625 L 0.992188 14.078125 C 0.992188 14.628906 1.433594 15.070312 1.984375 15.070312 L 21.832031 15.070312 C 22.378906 15.070312 22.824219 14.628906 22.824219 14.078125 L 22.824219 6.140625 C 22.824219 5.886719 22.730469 5.660156 22.574219 5.484375 L 22.574219 4.15625 C 22.574219 3.605469 22.132812 3.164062 21.582031 3.164062 Z M 5.457031 3.164062 "/>
<path style=" stroke:none;fill-rule:nonzero;fill:url(#linear1);" d="M 5.457031 3.164062 C 4.90625 3.164062 4.464844 3.605469 4.464844 4.15625 L 4.464844 5.148438 L 1.984375 5.148438 C 1.433594 5.148438 0.992188 5.589844 0.992188 6.140625 L 0.992188 14.078125 C 0.992188 14.628906 1.433594 15.070312 1.984375 15.070312 L 21.832031 15.070312 C 22.378906 15.070312 22.824219 14.628906 22.824219 14.078125 L 22.824219 6.140625 C 22.824219 5.886719 22.730469 5.660156 22.574219 5.484375 L 22.574219 4.15625 C 22.574219 3.605469 22.132812 3.164062 21.582031 3.164062 Z M 5.457031 3.164062 "/>
<path style=" stroke:none;fill-rule:nonzero;fill:rgb(90.196079%,90.196079%,90.196079%);fill-opacity:0.392157;" d="M 5.457031 3.226562 C 4.90625 3.226562 4.464844 3.667969 4.464844 4.21875 L 4.464844 4.34375 C 4.464844 3.792969 4.90625 3.351562 5.457031 3.351562 L 21.582031 3.351562 C 22.132812 3.351562 22.574219 3.792969 22.574219 4.34375 L 22.574219 4.21875 C 22.574219 3.667969 22.132812 3.226562 21.582031 3.226562 Z M 5.457031 3.226562 "/>
<path style=" stroke:none;fill-rule:nonzero;fill:rgb(12.941177%,12.941177%,12.941177%);fill-opacity:1;" d="M 5.457031 3.09375 C 4.871094 3.09375 4.394531 3.570312 4.394531 4.15625 L 4.394531 5.078125 L 1.984375 5.078125 C 1.398438 5.078125 0.921875 5.554688 0.921875 6.140625 L 0.921875 14.078125 C 0.921875 14.667969 1.398438 15.140625 1.984375 15.140625 L 21.832031 15.140625 C 22.417969 15.140625 22.894531 14.667969 22.894531 14.078125 L 22.894531 6.140625 C 22.894531 5.882812 22.800781 5.644531 22.644531 5.460938 L 22.644531 4.15625 C 22.644531 3.570312 22.167969 3.09375 21.582031 3.09375 Z M 5.457031 3.234375 L 21.582031 3.234375 C 22.09375 3.234375 22.503906 3.644531 22.503906 4.15625 L 22.503906 5.511719 L 22.523438 5.53125 C 22.664062 5.691406 22.753906 5.90625 22.753906 6.140625 L 22.753906 14.078125 C 22.753906 14.589844 22.34375 15 21.832031 15 L 1.984375 15 C 1.472656 15 1.0625 14.589844 1.0625 14.078125 L 1.0625 6.140625 C 1.0625 5.628906 1.472656 5.21875 1.984375 5.21875 L 4.535156 5.21875 L 4.535156 4.15625 C 4.535156 3.644531 4.945312 3.234375 5.457031 3.234375 Z M 5.457031 3.234375 "/>
<path style=" stroke:none;fill-rule:nonzero;fill:rgb(68.235296%,83.529413%,50.588238%);fill-opacity:1;" d="M 1.984375 9.613281 C 1.433594 9.613281 0.992188 10.058594 0.992188 10.605469 L 0.992188 20.03125 C 0.992188 20.582031 1.433594 21.027344 1.984375 21.027344 L 21.832031 21.027344 C 22.378906 21.027344 22.824219 20.582031 22.824219 20.03125 L 22.824219 10.605469 L 9.425781 10.605469 C 8.878906 10.605469 8.433594 10.164062 8.433594 9.613281 Z M 1.984375 9.613281 "/>
<path style=" stroke:none;fill-rule:nonzero;fill:rgb(0%,0%,0%);fill-opacity:0.196078;" d="M 1.984375 21.027344 C 1.433594 21.027344 0.992188 20.582031 0.992188 20.03125 L 0.992188 19.910156 C 0.992188 20.457031 1.433594 20.902344 1.984375 20.902344 L 21.832031 20.902344 C 22.378906 20.902344 22.824219 20.457031 22.824219 19.910156 L 22.824219 20.03125 C 22.824219 20.582031 22.378906 21.027344 21.832031 21.027344 Z M 1.984375 21.027344 "/>
<path style=" stroke:none;fill-rule:nonzero;fill:url(#linear2);" d="M 1.984375 9.613281 C 1.433594 9.613281 0.992188 10.058594 0.992188 10.605469 L 0.992188 20.03125 C 0.992188 20.582031 1.433594 21.027344 1.984375 21.027344 L 21.832031 21.027344 C 22.378906 21.027344 22.824219 20.582031 22.824219 20.03125 L 22.824219 10.605469 L 9.425781 10.605469 C 8.878906 10.605469 8.433594 10.164062 8.433594 9.613281 Z M 1.984375 9.613281 "/>
<path style=" stroke:none;fill-rule:nonzero;fill:rgb(90.196079%,90.196079%,90.196079%);fill-opacity:0.392157;" d="M 9.425781 10.792969 C 8.878906 10.792969 8.433594 10.351562 8.433594 9.800781 L 8.433594 9.675781 C 8.433594 10.226562 8.878906 10.667969 9.425781 10.667969 L 22.882812 10.667969 L 22.882812 10.792969 Z M 9.425781 10.792969 "/>
<path style=" stroke:none;fill-rule:nonzero;fill:rgb(90.196079%,90.196079%,90.196079%);fill-opacity:0.392157;" d="M 1.984375 9.675781 C 1.433594 9.675781 0.992188 10.117188 0.992188 10.667969 L 0.992188 10.792969 C 0.992188 10.242188 1.433594 9.800781 1.984375 9.800781 L 8.433594 9.800781 L 8.433594 9.675781 Z M 1.984375 9.675781 "/>
<path style=" stroke:none;fill-rule:nonzero;fill:rgb(12.941177%,12.941177%,12.941177%);fill-opacity:1;" d="M 1.984375 9.542969 C 1.398438 9.542969 0.921875 10.019531 0.921875 10.605469 L 0.921875 20.03125 C 0.921875 20.621094 1.398438 21.097656 1.984375 21.097656 L 21.832031 21.097656 C 22.417969 21.097656 22.894531 20.621094 22.894531 20.03125 L 22.894531 10.535156 L 9.425781 10.535156 C 8.914062 10.535156 8.503906 10.125 8.503906 9.613281 L 8.503906 9.542969 Z M 1.984375 9.683594 L 8.367188 9.683594 C 8.402344 10.238281 8.863281 10.675781 9.425781 10.675781 L 22.753906 10.675781 L 22.753906 20.03125 C 22.753906 20.546875 22.34375 20.957031 21.832031 20.957031 L 1.984375 20.957031 C 1.472656 20.957031 1.0625 20.546875 1.0625 20.03125 L 1.0625 10.605469 C 1.0625 10.09375 1.472656 9.683594 1.984375 9.683594 Z M 1.984375 9.683594 "/>
</g>
</svg>

<svg xmlns="http://www.w3.org/2000/svg" width="24" height="24"><defs><linearGradient id="a" gradientUnits="userSpaceOnUse" x1="254" y1="233.5" x2="254" y2="254.667" gradientTransform="matrix(.04688 0 0 .04688 0 10.08)"><stop offset="0" stop-opacity=".275"/><stop offset="1" stop-opacity="0"/></linearGradient><radialGradient id="b" gradientUnits="userSpaceOnUse" cx="450.909" cy="189.579" fx="450.909" fy="189.579" r="21.167" gradientTransform="matrix(0 -.0586 -.10548 0 40.586 47.696)"><stop offset="0" stop-opacity=".314"/><stop offset=".222" stop-opacity=".275"/><stop offset="1" stop-opacity="0"/></radialGradient><radialGradient id="c" gradientUnits="userSpaceOnUse" cx="450.909" cy="189.579" fx="450.909" fy="189.579" r="21.167" gradientTransform="matrix(0 .0586 .10548 0 -16.772 -5.646)"><stop offset="0" stop-opacity=".314"/><stop offset=".222" stop-opacity=".275"/><stop offset="1" stop-opacity="0"/></radialGradient><radialGradient id="d" gradientUnits="userSpaceOnUse" cx="450.909" cy="189.579" fx="450.909" fy="189.579" r="21.167" gradientTransform="matrix(0 -.0586 .10548 0 -16.772 47.696)"><stop offset="0" stop-opacity=".314"/><stop offset=".222" stop-opacity=".275"/><stop offset="1" stop-opacity="0"/></radialGradient><radialGradient id="e" gradientUnits="userSpaceOnUse" cx="450.909" cy="189.579" fx="450.909" fy="189.579" r="21.167" gradientTransform="matrix(0 .0586 -.10548 0 40.586 -5.646)"><stop offset="0" stop-opacity=".314"/><stop offset=".222" stop-opacity=".275"/><stop offset="1" stop-opacity="0"/></radialGradient><linearGradient id="f" gradientUnits="userSpaceOnUse" x1="960" y1="255.118" x2="960" y2="1215.118" gradientTransform="matrix(.0124 0 0 .0124 0 0)"><stop offset="0" stop-color="#585858" stop-opacity="0"/><stop offset="1" stop-color="#fafafa" stop-opacity=".196"/></linearGradient><linearGradient id="g" gradientUnits="userSpaceOnUse" x1="960" y1="1695.118" x2="960" y2="855.118" gradientTransform="matrix(.0124 0 0 .0124 0 0)"><stop offset="0" stop-color="#585858" stop-opacity="0"/><stop offset="1" stop-color="#fafafa" stop-opacity=".196"/></linearGradient></defs><path d="M2.977 21.027H20.84v.993H2.977zm0 0" fill="url(#a)"/><path d="M20.84 21.027h1.984v-.996H20.84zm0 0" fill="url(#b)"/><path d="M2.977 21.027H.992v.993h1.985zm0 0" fill="url(#c)"/><path d="M2.977 21.027H.992v-.996h1.985zm0 0" fill="url(#d)"/><path d="M20.84 21.027h1.984v.993H20.84zm0 0" fill="url(#e)"/><path d="M5.457 3.164a.989.989 0 0 0-.992.992v.992h-2.48a.989.989 0 0 0-.993.993v7.937c0 .55.442.992.992.992h19.848a.991.991 0 0 0 .992-.992V6.141a.978.978 0 0 0-.25-.657V4.156a.989.989 0 0 0-.992-.992zm0 0" fill="#7cb342"/><path d="M5.457 3.164a.989.989 0 0 0-.992.992v.992h-2.48a.989.989 0 0 0-.993.993v7.937c0 .55.442.992.992.992h19.848a.991.991 0 0 0 .992-.992V6.141a.978.978 0 0 0-.25-.657V4.156a.989.989 0 0 0-.992-.992zm0 0" fill="url(#f)"/><path d="M5.457 3.164a.989.989 0 0 0-.992.992v.125c0-.55.441-.992.992-.992h16.125c.55 0 .992.441.992.992v-.125a.989.989 0 0 0-.992-.992zm0 0" fill="#e6e6e6" fill-opacity=".588"/><path d="M5.457 3.094c-.586 0-1.062.476-1.062 1.062v.922h-2.41c-.587 0-1.063.477-1.063 1.063v7.937c0 .59.476 1.063 1.062 1.063h19.848c.586 0 1.063-.473 1.063-1.063V6.141c0-.258-.094-.496-.25-.68V4.156c0-.586-.477-1.062-1.063-1.062zm0 .14h16.125c.512 0 .922.41.922.922v1.356l.02.02c.14.16.23.374.23.609v7.937c0 .512-.41.922-.922.922H1.984a.919.919 0 0 1-.921-.922V6.141c0-.512.41-.922.921-.922h2.551V4.156c0-.511.41-.922.922-.922zm0 0" fill="#212121"/><path d="M1.984 9.613a.991.991 0 0 0-.992.992v9.426c0 .551.442.996.992.996h19.848a.994.994 0 0 0 .992-.996v-9.426H9.426a.991.991 0 0 1-.992-.992zm0 0" fill="#9ccc65"/><path d="M1.984 21.027a.992.992 0 0 1-.992-.996v-.12c0 .546.442.991.992.991h19.848a.994.994 0 0 0 .992-.992v.121c0 .551-.445.996-.992.996zm0 0" fill-opacity=".196"/><path d="M1.984 9.613a.991.991 0 0 0-.992.992v.125c0-.55.442-.992.992-.992h6.45v-.125zm0 0" fill="#e6e6e6" fill-opacity=".937"/><path d="M9.426 10.73a.991.991 0 0 1-.992-.992v-.125c0 .551.445.996.992.992h13.457v.125zm0 0" fill="#e6e6e6" fill-opacity=".937"/><path d="M1.984 9.613a.991.991 0 0 0-.992.992v9.426c0 .551.442.996.992.996h19.848a.994.994 0 0 0 .992-.996v-9.426H9.426a.991.991 0 0 1-.992-.992zm0 0" fill="url(#g)"/><path d="M1.984 9.543c-.586 0-1.062.477-1.062 1.062v9.426c0 .59.476 1.067 1.062 1.067h19.848c.586 0 1.063-.477 1.063-1.067v-9.496H9.425a.919.919 0 0 1-.921-.922v-.07zm0 .14h6.383a1.06 1.06 0 0 0 1.059.993h13.328v9.355a.92.92 0 0 1-.922.926H1.984a.92.92 0 0 1-.921-.926v-9.426c0-.511.41-.921.921-.921zm0 0" fill="#212121"/></svg>
